icons/svg/3d-object_16.svg

<?xml version="1.0" encoding="UTF-8"?>
<svg width="16px" height="16px" viewBox="0 0 16 16" version="1.1" xmlns="http://www.w3.org/2000/svg" xmlns:xlink="http://www.w3.org/1999/xlink">
    <!-- Generator: Sketch 59.1 (86144) - https://sketch.com -->
    <title>3d-object_16</title>
    <desc>Created with Sketch.</desc>
    <g id="New-Icon" stroke="none" stroke-width="1" fill="none" fill-rule="evenodd">
        <g id="3d-object_16" fill="#171B1F">
            <path d="M8.5,13.7678 L8.5,6.6458 L14,4.4938 L14,11.6158 L8.5,13.7678 Z M2,4.7468 L2.301,4.8508 L7.5,6.6598 L7.5,13.7678 L2,11.6158 L2,4.7468 Z M8.01,2.0328 L13.057,3.7888 L7.989,5.7718 L7.204,5.4978 L2.943,4.0158 L8.01,2.0328 Z M15,3.7508 C15,3.7408 14.992,3.7338 14.991,3.7238 C14.984,3.6418 14.958,3.5648 14.915,3.4968 C14.898,3.4708 14.877,3.4538 14.856,3.4318 C14.831,3.4038 14.813,3.3698 14.782,3.3478 C14.759,3.3318 14.73,3.3308 14.706,3.3198 C14.689,3.3118 14.681,3.2948 14.664,3.2888 L8.164,1.0278 C8.051,0.9878 7.929,0.9918 7.818,1.0348 L1.318,3.5778 C1.302,3.5838 1.295,3.6008 1.28,3.6078 C1.258,3.6198 1.231,3.6208 1.21,3.6358 C1.176,3.6608 1.156,3.6978 1.129,3.7298 C1.111,3.7508 1.091,3.7658 1.078,3.7888 C1.031,3.8668 1,3.9518 1,4.0438 L1,11.9568 C1,12.1628 1.126,12.3478 1.318,12.4228 L7.818,14.9658 C7.876,14.9888 7.938,14.9998 8,14.9998 C8.062,14.9998 8.124,14.9888 8.182,14.9658 L14.682,12.4228 C14.874,12.3478 15,12.1628 15,11.9568 L15,3.7608 C15,3.7588 14.999,3.7578 14.999,3.7558 C14.999,3.7538 15,3.7528 15,3.7508 L15,3.7508 Z" id="fill"></path>
        </g>
    </g>
</svg>

<svg width="16" height="16" xmlns="http://www.w3.org/2000/svg"><path d="M8.5 13.768V6.646L14 4.494v7.122l-5.5 2.152zM2 4.747l.301.104L7.5 6.66v7.108L2 11.616v-6.87zm6.01-2.714l5.047 1.756-5.068 1.983-.785-.274-4.261-1.482L8.01 2.033zM15 3.75c0-.01-.008-.017-.009-.027a.502.502 0 00-.076-.227c-.017-.026-.038-.043-.059-.065-.025-.028-.043-.062-.074-.084-.023-.016-.052-.017-.076-.028-.017-.008-.025-.025-.042-.031l-6.5-2.261a.496.496 0 00-.346.007l-6.5 2.543c-.016.006-.023.023-.038.03-.022.012-.049.013-.07.028-.034.025-.054.062-.081.094-.018.02-.038.036-.051.059A.493.493 0 001 4.044v7.913a.5.5 0 00.318.466l6.5 2.543a.494.494 0 00.364 0l6.5-2.543a.5.5 0 00.318-.466V3.76l-.001-.005L15 3.75z" fill="#171B1F" fill-rule="evenodd"/></svg>
